X:103 
T:Lads of Doocastle (reel), The 
F:file ID: cre.5/103lads_d
B:CRE5.160 (BuachaillÃÂÃÂÃÂÃÂ­ ChaisleÃÂÃÂÃÂÃÂ¡n an Dumha)
M:4/4
%%Q:180
R:reel
K:D
ze|fafe dedB|ADD2 [AA,]DFA|fafe dfbf|afdf edBc|
d2cB A2GB|AD~D2 [AA,]DFA|baae fd~d2|egfe d2:|
(3ABc|:d2 (3fed ad (3fed|b2gb agfe|d2 (3fed ad (3fed|\
cAeA fAeA|
d2 (3fed ad (3fed|b2gb a3f|g2fe fafa|gfed c2:|\
"m.16 last time" gfec d4|] 

%%%

